assets/2023/icons/scss.svg

<!-- Copyright 2000-2021 JetBrains s.r.o. and contributors. Use of this source code is governed by the Apache 2.0 license. -->
<svg width="16" height="16" viewBox="0 0 16 16" fill="none" xmlns="http://www.w3.org/2000/svg">
<path d="M13.8113 2.71267C13.3919 1.06803 10.6649 0.527384 8.08396 1.44428C6.54799 1.98997 4.88518 2.84641 3.68959 3.96475C2.26803 5.29435 2.04134 6.45168 2.13478 6.93526C2.46438 8.64156 4.80238 9.75688 5.76344 10.5844V10.5894C5.48005 10.7289 3.40583 11.7786 2.92037 12.8518C2.40817 13.984 3.00191 14.7964 3.39497 14.9057C4.61288 15.2446 5.86266 14.6351 6.53429 13.6333C7.18239 12.6665 7.12848 11.4181 6.8468 10.7971C7.23531 10.6946 7.68832 10.6487 8.26399 10.7159C9.88839 10.9056 10.2071 11.9199 10.1462 12.3443C10.0852 12.7689 9.74456 13.0023 9.6306 13.0727C9.5167 13.1432 9.4819 13.1676 9.4915 13.2199C9.50534 13.2961 9.55808 13.2933 9.65517 13.2768C9.78891 13.2543 10.5082 12.9315 10.5389 12.148C10.5781 11.1532 9.6247 10.0403 7.93665 10.0694C7.24144 10.0814 6.80429 10.1475 6.48854 10.265C6.46519 10.2384 6.44143 10.212 6.41687 10.1858C5.37327 9.07236 3.44406 8.28474 3.52587 6.78795C3.55562 6.24379 3.74476 4.81087 7.23288 3.07274C10.0902 1.64892 12.3777 2.04072 12.773 2.90907C13.3377 4.1496 11.5505 6.45533 8.58313 6.78795C7.45258 6.91466 6.85726 6.47652 6.70918 6.31334C6.55331 6.14156 6.53005 6.1338 6.47186 6.16603C6.37706 6.21855 6.43715 6.37023 6.47186 6.46065C6.56048 6.69121 6.92402 7.1001 7.54386 7.30353C8.08914 7.48248 9.41649 7.58074 11.0218 6.95987C12.8197 6.26434 14.2236 4.32973 13.8113 2.71267ZM6.16232 11.094C6.29701 11.5924 6.28227 12.0571 6.14307 12.478C6.12761 12.5247 6.11062 12.5709 6.09214 12.6166C6.07361 12.6623 6.05364 12.7074 6.03214 12.752C5.92482 12.9746 5.7808 13.1831 5.60446 13.3754C5.06639 13.9624 4.3147 14.1843 3.99236 13.9974C3.64429 13.7956 3.81864 12.968 4.44245 12.3086C5.11354 11.5992 6.07911 11.1431 6.07911 11.1431L6.07767 11.1401C6.10539 11.1252 6.13365 11.1097 6.16232 11.094Z" fill="#CC6699"/>
</svg>

<svg xmlns="http://www.w3.org/2000/svg" width="16" height="16" fill="none" viewBox="0 0 16 16"><path fill="#C69" d="M13.811 2.713c-.42-1.645-3.146-2.186-5.727-1.269-1.536.546-3.199 1.402-4.394 2.52-1.422 1.33-1.649 2.488-1.555 2.971.33 1.707 2.667 2.822 3.628 3.65v.004c-.283.14-2.357 1.19-2.843 2.263-.512 1.132.082 1.944.475 2.054 1.218.339 2.468-.27 3.14-1.273.647-.966.593-2.215.312-2.836a3.7 3.7 0 0 1 1.417-.081c1.624.19 1.943 1.204 1.882 1.628-.06.425-.401.658-.515.729s-.15.095-.14.147c.014.076.067.073.164.057.134-.023.853-.345.884-1.129.04-.995-.914-2.108-2.602-2.079-.696.012-1.133.079-1.448.196l-.072-.08c-1.044-1.113-2.973-1.9-2.891-3.397.03-.544.219-1.977 3.707-3.715 2.857-1.424 5.145-1.032 5.54-.164.565 1.24-1.223 3.546-4.19 3.879-1.13.127-1.726-.311-1.874-.475-.156-.171-.179-.18-.237-.147-.095.053-.035.204 0 .295.088.23.452.64 1.072.843.545.178 1.872.277 3.478-.344 1.798-.696 3.202-2.63 2.79-4.247m-7.649 8.381a2.37 2.37 0 0 1-.07 1.523q-.027.068-.06.135a2.6 2.6 0 0 1-.428.623c-.538.587-1.29.81-1.612.622-.348-.201-.173-1.029.45-1.688.672-.71 1.637-1.166 1.637-1.166l-.001-.003z"/></svg>
